!!!!SEGMENT: pl-wn--mus-iii-62-765-1_zelenski-wladyslaw--dwie-piesni-do-slow-kazimierza-tetmajera-brzozy.krn
!!!cenid: 18xx:3773
!!!COM: Żeleński, Władysław
!!!COM-rismid: pe41024455
!!!CDT:
!!!CNT:
!!!OTL: Dwie pieśni do słów Kazimierza Tetmajera/Brzozy
!!!PDT:
!!!AGN:
!!!SMS-siglum: PL-Wn
!!!SMS-shelfmark: Mus.III.62.765/1
!!!SMS-shelfwork: W
!!!SMS-variant:
!!!SMS-altvar:
!!!NIFC-rismid:
!!!URL-scan: https://polona.pl/item/dwie-piesni-do-slow-kazimierza-tetmajera-1-brzozy,MTA2MzEwNDQw/0/#info:metadata
!!!ONB-nifc:
!!!OMD: Andantino non troppo lento.
!!!key: c
**kern	**kern	**dynam	**kern	**text	**dynam
*part2	*part2	*part2	*part1	*part1	*part1
*staff3	*staff2	*	*staff1	*staff1	*
*I"Fortepian.	*I"Fortepian.	*	*I"Śpiew.	*	*
*Ipiano	*Ipiano	*	*Ivox	*	*
*ICklav	*ICklav	*	*ICvox	*	*
*IGacmp	*IGacmp	*	*IGsolo	*	*
*clefF4	*clefG2	*	*clefG2	*	*
*k[b-e-a-]	*k[b-e-a-]	*	*k[b-e-a-]	*	*
*c:	*c:	*	*c:	*	*
*M2/4	*M2/4	*	*M2/4	*	*
=1	=1	=1	=1	=1	=1
*	*^	*	*	*	*
8FF/	4ree	8r	mf	2r	.	.
(4c 4F\	.	4a- 4e-\	.	.	.	.
.	[4ee-^/	.	.	.	.	.
8c 8F'\)	.	[8a- [8e-\	.	.	.	.
=2	=2	=2	=2	=2	=2	=2
8FF/	8ee-/L]	8a-] 8e-\]	.	2r	.	.
(4A- 4F'\	(8dd/	4e-\	p	.	.	.
.	8cc/)	.	.	.	.	.
8c 8F'\)	8a-/J	8e-\	.	.	.	.
=3	=3	=3	=3	=3	=3	=3
(8GGG/	4.g/	8e-\L	.	2r	.	.
4GG/)	.	(8G\	.	.	.	.
.	.	8An\)	.	.	.	.
8GG/	((8f/	(8Bn\J	>	.	.	.
=4	=4	=4	=4	=4	=4	=4
(8CC/	8e-/L)	8c\)	.	2r	.	.
4C/)	8d/J	4G\	.	.	.	.
.	[4c/)	.	.	.	.	.
8C/	.	(8G\	]	.	.	.
*	*v	*v	*	*	*	*
!!LO:LB:g=original
=5	=5	=5	=5	=5	=5
2FF/	8c] 8A-/)	.	4r	.	.
.	4e- 4c 4A-/	p	.	.	.
.	.	.	[4ee-^\	Za-	.
.	[8e-L [>8c [8A-/	.	.	.	.
=6	=6	=6	=6	=6	=6
!	!	!	!LO:TX:a:i:t=espr.	!	!
2FF 2FFF/	8e-]J 8c] 8A-/]	.	8ee-\]	.	.
.	4d 4c 4A-/	.	8dd\	-pła-	.
.	.	.	8cc\	-ka-	.
.	[8d [8c [8A-/	.	8a-/	-ły	.
=7	=7	=7	=7	=7	=7
*	*^	*	*	*	*
!LO:N:n=2:vis=4	!	!	!	!	!	!
[2GG [2GGG/	8d] 8c] 8A-/]	8ryy	.	4.g/	r dza-	.
.	4d 4G/	(8c\L	.	.	.	.
.	.	8An\J)	.	.	.	.
!	!LO:S:s=2:note:problem:note-level slur	!	!	!	!	!
.	(8d (>8Bn [8G/	8ryy	.	8f/	-we	.
=8	=8	=8	=8	=8	=8	=8
!	!LO:S:s=2:note:problem:note-level slur	!	!	!	!	!
2GG] 2GGG/]	8e-L) 8c) 8G/]	8ryy	.	8e-/	liś-	.
!	!	!	!	!	!	!LO:HP:a
.	(8f 8d/	4G\	<	8f/	-cie,	<
.	8g 8e-/)	.	.	8g/	roz-	.
.	[8gJ [8e-/	[8G\	.	8g/	-pła-	.
*	*v	*v	*	*	*	*
=9	=9	=9	=9	=9	=9
(4CC/	8g] 8e-] 8G/]	.	(8g/	-ka-	.
.	4b- 4e- 4d/	.	4b-\)	.	.
4FF/	.	.	.	.	.
.	(8a- [>8e- (8c/	[	8a-/	-nych	[
!!LO:LB:g=original
=10	=10	=10	=10	=10	=10
!	!	!	!	!	!LO:HP:a
(2FF/)	8g 8e-] 8Bn/))	>	[2g/	brzóz,	>]
.	4g 4e- 4B/	.	.	.	.
.	[8g [>8e- [8B/	]]	.	.	.
=11	=11	=11	=11	=11	=11
4G\	8g] 8e-] 8B/]	.	4g/]	.	.
.	4g 4e- 4Bn/	p	.	.	.
!	!	!	!	!	!LO:DY:a
4F\)	.	.	8an/	Na	p
.	[8g [>8d [8G/	.	8bn\	da-	.
=12	=12	=12	=12	=12	=12
(4E-\	8g] 8d] 8G/]	.	4.cc\	-le-	.
.	4g 4c 4G/	.	.	.	.
4D\	.	.	.	.	.
.	[8g [8f [8G/	.	8dd\	-kie	.
=13	=13	=13	=13	=13	=13
4C/	8g] 8f] 8G/]	.	8ff\	cie-	.
.	4g 4e- 4G/	.	8ee-\	-mne	.
4GG/)	.	.	8dd\L	mo-	.
.	([8b- [>8e- 8d-X/	.	8dd-X\J	.	.
=14	=14	=14	=14	=14	=14
*	*^	*	*	*	*
(4.AA-/	8b-]L 8e-] 8c/)	8ryy	.	8cc\	-rza	.
.	(8dd/	4en 4c\	.	8b-\	Po-	.
.	8a- 8f/)	.	.	8a-/L	-pły-	.
!	!LO:S:s=2:note:problem:note-level slur	!	!	!	!	!
8GG/	(8b-J (>8g/	[8c\	.	8b-/J	.	.
!!LO:LB:g=original
=15	=15	=15	=15	=15	=15	=15
!	!	!	!	!	!	!LO:HP:a
4FF/)	8ccL 8a- 8c/]))	8ryy	.	4.cc\	-nął	<
.	(8cc 8a-/	4c\	<	.	.	.
(4F\	8b- 8g/)	.	.	.	.	.
!	!LO:S:s=2:note:problem:note-level slur	!	!	!	!	!
.	(8a-J (<8f/	[8c\	.	8dd\	ich	.
=16	=16	=16	=16	=16	=16	=16
!	!	!LO:N:vis=4	!	!	!	!
4C/)	8g/)	8e-) 8c\]	[	[2ee-\	głos.	[
.	4.g^/	(8e-L 8c\	.	.	.	.
[4CC/	.	8d 8B-\)	.	.	.	.
.	.	8cJ 8A-\	.	.	.	.
=17	=17	=17	=17	=17	=17	=17
4CC/]	(4Bn/	8G\L	.	4ee-\]	.	.
.	.	8F\J	<	.	.	.
!	!	!	!	!	!	!LO:HP:a
([>4C/	8cL 8E-/)	4ryy	.	8cc\	Na	<
.	8e-J 8G'/	.	.	8ee-\	da-	.
*	*v	*v	*	*	*	*
=18	=18	=18	=18	=18	=18
2C] 2CC/)	8g 8e- 8G/	.	4.gg\	-le-	.
.	(4g 4e- 4G'/	.	.	.	.
.	8f 8e- 8A-'/)	.	8ff\	-kie	.
!!LO:PB:g=original
=19	=19	=19	=19	=19	=19
*^	*	*	*	*	*
!LO:N:vis=2	!	!	!	!	!	!
(<4FFF/	2FFF\	8r	.	8ee-\	cie-	.
.	.	(4a- 4e- 4A-'/	.	8a-/	-mne	.
4FF/)	.	.	.	8ee-\L	mo-	.
.	.	8a- 8d-X 8A-'/)	.	8dd-X\J	.	.
*v	*v	*	*	*	*	*
=20	=20	=20	=20	=20	=20
*	*^	*	*	*	*
!	!	!	!	!	!	!LO:HP:a
[2GG [2GGG/	8g 8e- 8G/	8ryy	>	8cc\	-rza	>
.	[4.g 4.G/	(8e-\L	.	8cc\	Po-	.
.	.	8dn\	.	8b-/L	-pły-	.
.	.	8c\J	]]	8a-/J	.	]]
=21	=21	=21	=21	=21	=21	=21
!	!	!	!	!	!	!LO:DY:a
4GG] 4GGG/]	4.g/]	8BnL 8G\)	.	4.g/	-nął	p
.	.	(8d\	p	.	.	.
(4GG/	.	8An\	.	.	.	.
.	(8f/	8B\J	.	8ee-\	ich	.
*	*v	*v	*	*	*	*
=22	=22	=22	=22	=22	=22
8CC/)	8e- 8c/))	.	[4cc\	głos.	.
(4c 4G'\	4g 4e-/	<	.	.	.
.	.	.	8cc\]	.	.
8c 8G'\)	(>8g [8e-/	.	8r	.	.
=23	=23	=23	=23	=23	=23
*	*^	*	*	*	*
8FF/	4r	8a- 8e-\])	[	2r	.	.
(4c 4F'\	.	4a- 4e-\	f	.	.	.
.	[4ee-^/	.	.	.	.	.
8c 8F'\)	.	[8a- [8e-\	.	.	.	.
!!LO:LB:g=original
=24	=24	=24	=24	=24	=24	=24
8FF/	8ee-/L]	8a-] 8e-\]	.	2r	.	.
(4A- 4F'\	(8dd/	4e-\	>	.	.	.
.	8cc/)	.	.	.	.	.
8c 8F'\)	8a-/J	8e-\	]	.	.	.
=25	=25	=25	=25	=25	=25	=25
!	!LO:TX:b:i:t=dolce	!	!	!	!	!
(4B-\	4.g/	8d\	.	2r	.	.
.	.	4d\	.	.	.	.
4A-\	.	.	.	.	.	.
.	(>8f 8d 8B-/	8ryy	.	.	.	.
=26	=26	=26	=26	=26	=26	=26
4G\	4.b-/)	8e- 8B-\	.	2r	.	.
.	.	4e- 4B-\	.	.	.	.
4C/)	.	.	.	.	.	.
.	([<8e-/	8B-\	<	.	.	.
=27	=27	=27	=27	=27	=27	=27
(4FF/	4.g/)	8e-] 8A-\	[	2r	.	.
.	.	4e- 4A-\	.	.	.	.
4BB-/	.	.	.	.	.	.
.	(8f 8d (8A-/	8ryy	>	.	.	.
*	*v	*v	*	*	*	*
=28	=28	=28	=28	=28	=28
4EE-/)	8e- 8G/))	]	4r	.	.
.	4e- 4E-/	pp	.	.	.
!	!	!	!LO:TX:a:i:t=dolce	!	!
(4C/	.	.	8e-/	Za-	.
.	[8e- (8E-/	.	8e-/	-py-	.
=29	=29	=29	=29	=29	=29
!	!	!	!	!	!LO:HP:a
4D-X\	8e-] 8F/)	<	4.f/	-ta-	<
.	4e- 4F/	.	.	.	.
4BB-/	.	.	.	.	.
.	([8e- 8d-X 8G/	[	8g/	-ły	[
!!LO:LB:g=original
=30	=30	=30	=30	=30	=30
!	!	!	!	!	!LO:HP:a
8AA-/)	8e-] 8c/)	.	4b-\	mo-	>
4c 4E-\	(8e-\L	p	.	.	.
!	!LO:TX:b:i:t=dolce	!	!	!	!
.	8ee-\)	.	8a-/	-rza:	]
(8c\	(8ee-J [8a-\	.	8r	.	.
=31	=31	=31	=31	=31	=31
*	*^	*	*	*	*
4d-X\	4.ff-X/)	8a-\]	.	2r	.	.
.	.	4dd-X 4a-\	.	.	.	.
4c-X\	.	.	.	.	.	.
.	(8gg-X/	[8ee- [8cc-X\	>	.	.	.
=32	=32	=32	=32	=32	=32	=32
4f-X\)	8bb--/)	8ee-] 8cc-\]	.	2r	.	.
.	4aa- 4ff-X 4cc-X\	4.ryy	.	.	.	.
(4c-X\	.	.	.	.	.	.
.	[8gg-X [8ee- [8cc-\	.	]	.	.	.
*	*v	*v	*	*	*	*
=33	=33	=33	=33	=33	=33
4d-X\	8gg-] 8ee-] 8cc-\]	pp	8r	.	.
!	!	!	!	!	!LO:DY:a
.	4ff-X 4dd-X 4a-\	.	4ff-X\	Cze-	p
4A-\	.	.	.	.	.
.	[8ee- [8cc-X [8a-\	.	8ee-\	-mu	.
=34	=34	=34	=34	=34	=34
4c-X\)	8ee-] 8cc-] 8a-\]	.	8ee-\	łka-	.
.	4ddn 4a- 4f/	.	8ddn\	-cie	.
(4F\	.	.	8a-/	smu-	.
.	(8cc-X [8a- (8e-/	.	8cc-X\	-tno	.
=35	=35	=35	=35	=35	=35
!	!	!	!	!	!LO:DY:a
4B-\	8b- 8a-] 8d/))	.	[2b-\	tak?	<[
.	4b- 4a- 4d/	<	.	.	.
4F-X\	.	.	.	.	.
.	[8b- [8a- [8d/	[[	.	.	.
!!LO:LB:g=original
=36	=36	=36	=36	=36	=36
4E-\)	8b-] 8a-] 8d/]	.	4b-\]	.	.
.	4b- 4g 4e-/	.	.	.	.
!	!	!	!	!	!LO:DY:a
(4D-X\	.	.	8ccn\	Czy	mf
!	!LO:S:s=2:note:problem:note-level slur	!	!LO:TX:a:i:t=con duolo	!	!
.	(8b- (>8g [8e-/	.	8dd-X\	wam	.
=37	=37	=37	=37	=37	=37
!	!LO:S:s=2:note:problem:note-level slur	!	!	!	!
4AAn/	8cc) 8g-X) 8e-/]	.	(8cc\	słoń-	.
.	4cc 4g- 4c/	mf	4gg-X\)	.	.
4BB-/	.	.	.	.	.
.	(8f (8d-X/	.	8ff\	-ca	.
=38	=38	=38	=38	=38	=38
4C/)	8en 8c/))	.	8een\	brak	.
.	4e-X 4An/	.	8cc\	jas-	.
4D-X\	.	.	8ee-X\	-ne-	.
.	8d-X 8B-/	.	8dd-X\	-go,	.
=39	=39	=39	=39	=39	=39
*	*^	*	*	*	*
4E-\	(8c/	(4A-X\	.	8cc\	Czy	.
.	4f/	.	.	8dd-X\	wam	.
4EE-/	.	4d-X\	.	8a-/	de-	.
.	8g/	.	.	8b-\	-szczu	.
=40	=40	=40	=40	=40	=40	=40
!	!	!	!	!	!	!LO:HP:a
8AA-/	4.a-/)	8c\)	.	[2cc\	brak?	<
4c 4E-\	.	4.ryy	.	.	.	.
8c 8E-\	(8b-/	.	.	.	.	.
*	*v	*v	*	*	*	*
!!LO:LB:g=original
=41	=41	=41	=41	=41	=41
8AA-/	8cc\L	<	4cc\]	.	.
4c 4E-\	8b-\	.	.	.	.
.	8cc\	.	8cc\	Czy	.
(<8GG/	8ee-\J	[	8ee-\	wam	[[
=42	=42	=42	=42	=42	=42
*	*^	*	*	*	*
!	!	!	!	!	!	!LO:DY:a
8FF\L)	4aa-/)	8r	f	4.aa-\	słoń-	f
8f 8c 8F\	.	4cc 4a-\	.	.	.	.
8GG\	8ryy	.	.	.	.	.
(8enJ 8c 8G\	(8gg/	[>8cc (8g\	.	8gg\	-ca	.
*	*v	*v	*	*	*	*
=43	=43	=43	=43	=43	=43
8e-XL 8An\)	8gg-XL 8cc] 8g-X\))	.	8gg-X\	brak	.
(8d-X 8B-\	(8ff 8dd-X 8f\	.	8ff\	jas-	.
!	!	!LO:HP:t=dimin.	!	!	!LO:HP:a:t=dimin.
8Gn\)	8een 8cc 8en\)	>	8een\	-ne-	>
(8A\J	(8ccJ (<8g-X\	.	8cc\	-go,	.
=44	=44	=44	=44	=44	=44
*	*^	*	*	*	*
4.B-\)	8ee-X/L	4.f\)	.	8ee-X\	Czy	.
.	8ddn/J)	.	.	8ddn\	wam	.
!	!	!	!	!	!	!LO:HP:a
.	[4b-/	.	.	[4b-\	de-	>
(8c\	.	(8a-\	.	.	.	.
=45	=45	=45	=45	=45	=45	=45
4.d-X\	4.b-/]	8g\L)	.	4.b-\]	.	.
.	.	8f\	.	.	.	.
.	.	8en\	.	.	.	.
8B-\	(8dd-X/	8f\J	.	8dd-X\	-szczu	]
!!LO:PB:g=original
=46	=46	=46	=46	=46	=46	=46
8c\)	[2cc/)	8en\	<	[2cc\	brak?	.
(4c'\	.	8r	.	.	.	.
!	!	!LO:S:s=1:note:problem:note-level slur	!	!	!	!
.	.	(<4b- (4g\	.	.	.	.
8c'\)	.	.	[[	.	.	.
=47	=47	=47	=47	=47	=47	=47
!	!	!LO:S:s=1:note:problem:note-level slur	!	!	!	!
8F\	8cc/]	8a-) 8f\)	.	8cc\]	.	.
(4f 4c'\	8ryy	4cc 4a-\	f	8r	.	.
.	[4aa-^/	.	.	4r	.	.
8f 8c'\)	.	8cc [8a-\	.	.	.	.
=48	=48	=48	=48	=48	=48	=48
8BB-/	8aa-/L]	8dd-X 8a-\]	.	2r	.	.
(4d-X 4B-'\	(8gg/	4a-\	.	.	.	.
.	8ff/)	.	.	.	.	.
(<8f 8B-'\)	8dd-/J	8a-\	.	.	.	.
=49	=49	=49	=49	=49	=49	=49
8f 8c\)	8cc/	8a-\	.	2r	.	.
8r	4cc/	4a-\	>	.	.	.
(4C/	.	.	.	.	.	.
.	([8cc [8a- 8g/	8ryy	.	.	.	.
=50	=50	=50	=50	=50	=50	=50
8F\)	8cc/])	8a-] 8f\	]	4r	.	.
(4c'\	8r	4a- 4e-\	mf	.	.	.
.	[4ee-^/	.	.	[4ee-^\	Nie	.
8c'\)	.	[8a- [8e-\	.	.	.	.
=51	=51	=51	=51	=51	=51	=51
8FF/	8ee-/L]	8a-] 8e-\]	.	8ee-\]	.	.
!	!	!	!	!	!	!LO:DY:a
4A- 4F\	(8dd/	4e-\	p	8dd\	brak	p
.	8cc/)	.	.	8cc\	nam	.
(<[8c 8F\	(8a-/J	[8e-\	.	8a-/	jas-	.
!!LO:LB:g=original
=52	=52	=52	=52	=52	=52	=52
8c] 8G\)	8g/L)	8e-\L]	.	8g/	-ne-	.
8r	[8g/J	8dJ 8c\	.	8f/	-go	.
!	!	!	!	!	!	!LO:HP:a
(4GG/	4g_ 4Bn/	8e-\L	<	8e-/	słoń-	<
.	.	8f\J	.	8f/	-ca,	.
*	*v	*v	*	*	*	*
=53	=53	=53	=53	=53	=53
4CC/)	8g]L 8e- 8c/	.	8g/	De-	.
.	8g [>8e- 8c/	.	8g/	-szcze	.
(4FF/	8b- 8e-] 8d/	.	8b-\	chmu-	.
.	(8a-J [>8e- (8c/	[	8a-/	-ry	[[
=54	=54	=54	=54	=54	=54
!	!	!	!	!	!LO:HP:a
2GG/	8g 8e-] 8Bn/))	.	[2g/	ślą,	>
.	4g 4e- 4B/	.	.	.	.
.	[8g [>8e- [8B/	.	.	.	.
=55	=55	=55	=55	=55	=55
4G\)	8g] 8e-] 8BnX/]	.	4g/]	.	]
.	4g 4e- 4B/	p	.	.	.
!	!	!	!	!	!LO:DY:a
(4F\	.	.	8an/	Tyl-	p
.	[8g 8d [8G/	.	8bn\	-ko	.
=56	=56	=56	=56	=56	=56
*	*^	*	*	*	*
4E-\	8g] 8c 8G/]	8ryy	.	(4cc\	zie-	.
.	4g 4G/	8c\L	.	.	.	.
8D\L	.	8d\J	.	8dd\)	.	.
!	!	!	!	!	!	!LO:HP:a
8C\J)	([8g 8e- 8G/	8ryy	<	8ee-\	-mia	<
!!LO:LB:g=original
=57	=57	=57	=57	=57	=57	=57
(2FF/	8g]L 8e-/	8A-\)	.	8gg\	kę-	.
.	(8f 8d-X/	4A-\	.	8ff\	-dy	.
.	8e- 8c/)	.	.	8ee-\	roś-	.
.	(8d-/J	(8A-\	[	8dd-X\	-niem,	[
*	*v	*v	*	*	*	*
=58	=58	=58	=58	=58	=58
!	!	!	!	!	!LO:HP:a
4GG/)	8e- 8c 8G/))	.	4.cc\	Prze-	<
.	4e- 4c 4G/	<	.	.	.
[4GGG/	.	.	.	.	.
.	(>8e- [8c 8F#X/	.	8cc\	-sią-	.
=59	=59	=59	=59	=59	=59
4GGG/]	8d 8c] 8Fn/)	.	4.ddn\	-knię-	.
.	4d 4c 4F/	.	.	.	.
(4GG/	.	.	.	.	.
!	!LO:S:s=2:note:problem:note-level slur	!	!	!	!
.	(8f (>8B- [8An/	.	8a-/	-ta	.
=60	=60	=60	=60	=60	=60
*	*^	*	*	*	*
!	!LO:S:s=2:note:problem:note-level slur	!	!	!	!	!
4CC/	8e-) 8c) 8A/]	8ryy	.	[2ee-\	krwią.	.
.	(4e- 4c/	[4.G\	.	.	.	.
4C/	.	.	.	.	.	.
.	8f 8d/	.	.	.	.	.
=61	=61	=61	=61	=61	=61	=61
4CC/)	8g 8e-/)	8G\]	.	8ee-\]	.	.
.	4g 4e- 4G/	4.ryy	.	8r	.	.
!	!	!	!	!	!	!LO:DY:a
(4C/	.	.	.	8cc\	Tyl-	f
.	[8g [8e- [8G/	.	.	8ee-\	-ko	.
*	*v	*v	*	*	*	*
=62	=62	=62	=62	=62	=62
!	!	!	!LO:TX:a:i:t=con gran duolo	!	!
4.CC/)	8g]L 8e-] 8G/]	.	4.gg\	zie-	.
.	8gJ 8e- 8G/	.	.	.	.
.	[4ee- 4g [4e-/	.	.	.	.
(8C/	.	.	8ee-\	-mia	.
!!LO:LB:g=original
=63	=63	=63	=63	=63	=63
*	*^	*	*	*	*
8FF/)	(4ee-] (4e-/]	2a-\	.	8aa-\	kę-	.
[4A- 4F'\	.	.	.	8gg\	-dy	.
.	8ccL 8c/))	.	.	8ff\	roś-	.
8A-] 8F'\	8dd-XJ 8d-X/	.	.	8dd-X\	-niem,	.
*	*v	*v	*	*	*	*
=64	=64	=64	=64	=64	=64
!	!LO:S:s=2:note:problem:note-level slur	!	!	!	!
8GG/	(4cc (>4g (4e-/	.	4.cc\	Prze-	.
4G\	.	.	.	.	.
!	!LO:S:s=2:note:problem:note-level slur	!	!	!	!
.	8b-L 8f 8dn/)))	.	.	.	.
[8G\	8a-J 8e- 8c/	.	8ee-\	-sią-	.
=65	=65	=65	=65	=65	=65
*	*^	*	*	*	*
8G\]	8gL 8e-/	8Bn\	.	(8gg\	-knię-	.
(4GGG/	(8f;/	4c 4A-\	>	4aa-;\)	.	.
.	8e-/)	.	.	.	.	.
8GG/)	8dJ 8B 8F/	8ryy	]	8bn\	-ta	.
*	*v	*v	*	*	*	*
=66	=66	=66	=66	=66	=66
(8CC/	([4c 4E-/	p	[2cc\	krwią!	.
4C/)	.	.	.	.	.
.	(>4d 4c] (4F/)	.	.	.	.
8C/	.	.	.	.	.
=67	=67	=67	=67	=67	=67
*	*^	*	*	*	*
(8CC/	4e- 4c/	2G\)	<	8cc\]	.	.
4C/)	.	.	.	8r	.	.
.	8fL 8d/)	.	.	4r	.	.
8C/	8gJ 8e-/	.	[[	.	.	.
!!LO:LB:g=original
=68	=68	=68	=68	=68	=68	=68
8FF/	8a-/	8e- 8A-\	.	2r	.	.
(4c 4F'\	8r	4a- 4e-\	mf	.	.	.
.	[4ee-^/	.	.	.	.	.
8c 8F'\)	.	[8a- [8e-\	.	.	.	.
=69	=69	=69	=69	=69	=69	=69
8FF/	8ee-/L]	8a-] 8e-\]	.	2r	.	.
(4A- 4F'\	(8dd/	4e-\	p	.	.	.
.	8cc/)	.	.	.	.	.
8c 8F'\)	(8a-/J	[8e-\	.	.	.	.
=70	=70	=70	=70	=70	=70	=70
8c 8G\	8gL 8e-/])	8ryy	.	2r	.	.
8r	[8g/J	8dL 8c\	<	.	.	.
(4GG/	4g_ 4Bn/	8e-\	.	.	.	.
.	.	8f\J	[	.	.	.
=71	=71	=71	=71	=71	=71	=71
(8CC/)	4g_ 4e- (4c/	4ryy	.	2r	.	.
4C/)	.	.	>	.	.	.
.	8g/]	8dL 8B-X\)	.	.	.	.
8C/	8r	8cJ 8A-\	]	.	.	.
=72	=72	=72	=72	=72	=72	=72
(8CC/	4r	(4B- 4G\	.	2r	.	.
!	!	!	!LO:HP:t=dimin.	!	!	!
4C/)	.	.	>	.	.	.
!	!LO:S:s=2:note:problem:note-level slur	!	!	!	!	!
.	(4d (>4A- 4F/	4ryy	.	.	.	.
8C/	.	.	.	.	.	.
*	*v	*v	*	*	*	*
=73	=73	=73	=73	=73	=73
(8CC/	2G 2En/)))	.	2r	.	.
4C/)	.	.	.	.	.
8C/	.	.	.	.	.
=74	=74	=74	=74	=74	=74
(8CC/	2c 2G 2En/	pp	2r	.	.
4C/)	.	.	.	.	.
8C/	.	.	.	.	.
=75	=75	=75	=75	=75	=75
2CC;/	2c 2G 2En;/	.	2r;	.	.
==	==	==	==	==	==
*-	*-	*-	*-	*-	*-
!!!system-decoration: <s1>{(s2,s3)}
!!!RDF**kern: > = above
!!!RDF**kern: < = below
!!!ENC: Filip Voros
!!!END: 2022-03-14
!!!AIN: 1 piano 1 vox
!!!ENC: Andrzej Kubiczek
!!!END: 2022-03-19
